X:17
T:Cherily and Merrily
T:Mr. Webb's Fancy
M:3/4
L:1/4
K:F
c/B/ AF | G/A/ GD | F2 F | g2 g | gec | d/e/ dG | c> de/d/ | c3 ||
c d/e/ f | dcA | G> AB/c/ | d2 c | cAF | G/A/ GD | F> AG/A/ | F3||
%
%
